X:1
T:Jouons beau jeu
T:Jouons beau jeu
T:Jacques Clemens non papa
C:Jacques Clemens non papa
%%score [ 1 [ 2 3 ] 4 ]
L:1/8
Q:1/4=86
M:2/2
K:F
V:1 treble nm="Superius" snm="S"
V:2 treble-8 nm="Tenor 1" snm="T 1"
V:3 treble-8 nm="Tenor 2" snm="T 2"
V:4 bass nm="Bassus" snm="B"
V:1
 G2 BA G2 B2 | A2 G2 FF G2 | z FGG FFGG | F4 B2 BB | AB cA BA GF | ED A4 G2- | %6
w: Jou- ons beau jeu tout|en ri- ant, jou- ons,|jou- ons beau jeu tout en ri-|ant, si faisons bon-|ne _ chi- * * * * *|* * * e-|
"^#""^#" GF/E/ F2 G4 | G2 BA G2 B2 | A2 G2 FF G2 | z FGG FFGG | F4 B2 BB | AB cA BA GF | %12
w: * * * * re,|et si bu- vons le|vin fri- ant, le vin,|le vin fri- ant, le vin fri-|ant, lais- sant me-|lan- co- li- * * * * *|
 ED A3 G G2- | G2 F2 G4 | z4 d2 cB | AGFE D4 | z4 z2 d2 | cBAG FEDF | G2 G2 F2 A2 | BBBB A2 FF | %20
w: |* * e,|mais en bu-|vant soy- ons de- het,|mais|en bu- vant soy- ons de- het, soy-|ons de- het, chan-|tant la chan- so- net- te, chan-|
 GGGG F2 GB | A2 G2 FG AB | c2 d4 c2- | c2 B4 A2 | B8 | z2 B2 B2 B2 | A6 F2 | G4 F4- | F8 | %29
w: tant la chan- so- net- te, chan-|tant la chan- so- net- *|||te,|di- sant par|a- mou-|ret- te,|_|
 z BAG FGFE | D2 z B AGFG |"^b" FE D2 d2 cd | B2 A2 B2 AA | G2 F2 G2 FG | E2 D2 z2 B2 | %35
w: jou- ons beau jeu tout en ri-|ant, jou- ons beau jeu tout|en ri- ant en cour- ti-|net- * * te, en|cour- ti- net- * *|* te, en|
 A2 G3 F/E/ F2 | G8 |] %37
w: cour- ti- * * net-|te.|
V:2
 d2 gf d2 g2 | ef d2 z d e2 | z d e2 z dee | d4 f2 ff | f2 a2 gfed | c2 f3 e c2 | d4 d4 | %7
w: Jou- ons beau jeu tout|en ri- ant, ri- ant,|ri- ant, tout en ri-|ant, si fai- sons|bon- ne chi- * * *|e- * * *|* re,|
 d2 gf d2 g2 | ef d2 z d e2 | z dee ddee | d4 f2 ff | f2 a2 gf ed | c2 f3 e dc | d4 B2 z2 | %14
w: et si bu- vons le|vin fri- ant, le vin,|le vin fri- ant, le vin fri-|ant, lais- sant me-|lan- co- li- * * *||* e,|
 z4 z2 g2 | fedc BA G2 | z2 c2 f2 f2 | e2 e2 de f2 | d2 e2 d2 f2 | ggfg e2 dd | _eeee d2 dB | %21
w: mais|en bu- vant soy- ons de- het,|soy- ons de-|het, soy _ _ _|ons de- het, chan-|tant la chan- so- net- te, chan-|tant la chan- so- net- te, chan-|
"^b" e2 c2 d2 c2 | f6 f2 | d2 e2 f4 | d4 z2 f2 | f2 f2 g2 g2 |"^b" f2 e3 d d2- | d2 c2 d4 | %28
w: tant la chan- so-|net- *||te, di-|sant par a- mou-|ret- * * *||
 c4 z2 f2 | fdfd dB d2 | z ffd fddB | d2 d2 gb a2 | g2 f2 ggef | d2 d2 ee d2 | c2 A2 d2 f2 | %35
w: te, jou-|ons beau jeu tout en ri- ant,|jou- ons beau jeu tout en ri-|ant en cour- ti- net-|* te, en cour- ti- net-|te, en cour- ti- net-|* * te, en|
 e2 c2 d4 | d8 |] %37
w: cour- ti- net-|te.|
V:3
 G2 dd B2 d2 | c2 B2 A2 z c | A2 z c A2 z c | A2 A2 d4 | c2 ff d2 e2- | ed cB cB AG | A4 G4 | %7
w: Jou- ons beau jeu tout|en ri- ant, ri-|ant, ri- ant, tout|en ri- ant,|si fai- sons bon- ne|_ _ _ _ chi- * * *|e- re,|
 G2 dd B2 d2 | c2 B2 A2 z c | A2 z c A2 z c | A2 A2 d4 | c2 ff d2 e2- | ed cB cB AG | A4 G2 g2 | %14
w: et si bu- vons le|vin fri- ant, le|vin, le vin,- le|vin fri- ant,|lais- sant me- lan- co-|* * * * li- * * *|* e, mais|
 fedc BA G2 | z8 | g2 fe dcBA | GGcc A2 A2 | B2 c2 A2 d2 | dcdB c2 AA | ccBc A2 Bd | cBAG A3 G | %22
w: en bu- vant soy- ons de- het,||mais en bu- vant soy- ons de-|het, mais en bu- vant soy-|ons de- het, chan-|tant la chan- so- net- te, chan-|tant la chan- so- net- te, chan-|tant la chan- so- net- *|
 A2 B4 A2 | B4 c4 | B4 z2 d2 | d2 d2 _e2 d2 | c3 B A2 B2- | B2 AG A2 B2- | B2 A2 B2 d2 | %29
w: ||te, di-|sant par a- mou-|ret- * * *||* * te, jou-|
 cBdB AG B2 | z dcB dBAG | B3 A Gg ef | d4 z dcd | B2 A2 z cAB | G2 F2 B2 d2 | cB AG A4 | G8 |] %37
w: ons beau jeu tout en ri- ant,|jou- ons beau jeu tout en ri-|ant en cour- ti- net- *|te, en cour- ti-|net- te, en cour- ti-|net- * te, en|cour- * ti- * net-|te.|
V:4
 G,2 G,D, G,2 G,2 | A,F, G,2 D,2 z C, | D,2 z C, D,D,C,C, | D,2 D,2 B,,4 | F,2 F,F, G,2 G,2 | %5
w: Jou- ons beau jeu tout|en _ ri- ant, ri-|ant, tout en ri- ant, tout|en ri- ant,|si fai- sons bon- ne|
 A,3 G,F,G, E,2 | D,4 G,4 | G,2 G,D, G,2 G,2 | A,F, G,2 D,2 z C, | D,2 z C, D,D,C,C, | %10
w: chi- e- * * *|* re,-|et si bu- vons le|vin _ fri- ant, le|vin, le vin fri- ant, le|
 D,2 D,2 B,,4 | F,2 F,F, G,2 G,2 | A,3 G, F,2 G,2 | D,4 D2 CB, | A,G,F,E, D,D,E,C, | D,2 z2 z2 D2 | %16
w: vin fri- ant,|lais- sant me- lan- co-|li- * * *|e, mais en bu-|vant soy- ons de- het, soy- ons de-|het, mais|
 CB,A,G, F,E,D,D, | E,2 C,2 D,2 D,2 | G,2 C,2 D,2 D,2 | G,A,B,G, A,2 D,D, | %20
w: en bu- vant soy- ons de- het, mais|en bu- vant soy-|ons de- het, chan-|tant la chan- so- net- te, chan-|
"^b" C,D,E,C, D,2 G,,G, |"^b" C,2 E,2 D,2 F,2- | F,E, D,C, B,,2 F,2 | G,4 F,4 | B,,4 z2 B,2 | %25
w: tons la chan- so- net- te, chan-|tant la chan- so-|* * * * net- *||te, di-|
"^b" B,2 B,2 G,2 G,2 |"^b" A,3 G, F,2 E,D, |"^b" E,4 D,2 B,,2 | F,4 B,,2 B,2 | F,G,D,G, D,E, B,,2 | %30
w: sant par a- mou-|ret- * * * *||* te, jou-|ons beau jeu tout en ri- ant,|
"^b" B,2 F,G, D,G,D,E, |"^#""^b" B,,2 B,2 B,G, A,F, |"^#" G,2 D,D, G,G,A,F, | G,2 D,2 C,2 D,B,, | %34
w: jou- ons beau jeu tout en ri-|ant en cour- ti- net- *|* * te, en cour- ti- net-|te, en cour- ti- *|
 C,2 D,2 B,,2 B,,2 |"^b" C,2 E,2 D,4 | G,8 |] %37
w: net- * te, en|cour- ti- net-|te.|

